X:100
T: Cathleen Hehir's
S: De Danaan
Z: B.Black
R: jig
M: 6/8
L: 1/8
K: D
A | dcd e2 d | c2 E EFG | BcB BAG | F2 D DFA |
dcd e2 d | c2 E EFG | ABA GFE | D3-D2 :|
E | F2 A dcd | c2 B G3 | ABA GFE | B2 A F3 |
DFA dcd | c2 B G2 F | EFG ABc | d3-d2 :|
A | dcd d2 e | f2 d A3 | fgf fed | c2 d ecA |
dcd d2 e | f2 d A2 F | EFG ABc | d3-d2 :|
e/f/ |a2 f d2 d|Adf agf|g2 e c2 c|Ace gfe |
a2 f d2 d | Adf agf | gec ABc | d3-d2 :|
